packages/core/src/svgs/renbtc.svg

<svg width="24" height="24" viewBox="0 0 24 24" fill="none" xmlns="http://www.w3.org/2000/svg">
<g clip-path="url(#clip0_31_16980)">
<path d="M0 0H24V24H0V0Z" fill="#F0F3FA"/>
<path d="M6 12C6 10.4087 6.63214 8.88258 7.75736 7.75736C8.88258 6.63214 10.4087 6 12 6C13.5913 6 15.1174 6.63214 16.2426 7.75736C17.3679 8.88258 18 10.4087 18 12C18 13.5913 17.3679 15.1174 16.2426 16.2426C15.1174 17.3679 13.5913 18 12 18C10.4087 18 8.88258 17.3679 7.75736 16.2426C6.63214 15.1174 6 13.5913 6 12Z" fill="#F7931A"/>
<path d="M14.6914 11.2927C14.8028 10.5427 14.2328 10.1356 13.4485 9.86556L13.7014 8.84985L13.0799 8.69556L12.8314 9.68556L12.3385 9.56985L12.5871 8.57128L11.9657 8.41699L11.7085 9.43699L11.3185 9.34271V9.33842L10.4614 9.12414L10.2942 9.78842C10.2942 9.78842 10.7528 9.89556 10.7485 9.89985C10.9971 9.96414 11.0399 10.127 11.0357 10.2556L10.7485 11.4213L10.8128 11.4427L10.7442 11.4256L10.3371 13.0541C10.3071 13.127 10.2299 13.2427 10.0542 13.1956C10.0628 13.2084 9.60423 13.0884 9.60423 13.0884L9.29565 13.7956L10.1057 13.997L10.5471 14.1127L10.2899 15.1413L10.9071 15.2956L11.1599 14.2756L11.6571 14.4041L11.3999 15.4198L12.0257 15.5741L12.2828 14.5456C13.3371 14.747 14.1342 14.6698 14.4685 13.7098C14.7385 12.9384 14.4557 12.497 13.8985 12.2013C14.3057 12.1156 14.6099 11.8456 14.6871 11.2927H14.6914ZM13.2771 13.2856C13.0842 14.057 11.7857 13.637 11.3657 13.5384L11.7085 12.167C12.1242 12.2784 13.4742 12.4841 13.2728 13.2813V13.2856H13.2771ZM13.4657 11.2884C13.2942 11.987 12.2057 11.6313 11.8585 11.5456L12.1671 10.307C12.5185 10.3927 13.6457 10.5598 13.4657 11.2884Z" fill="white"/>
<path d="M4.28564 11.9999L4.28993 11.7128L5.69993 10.9199C5.6485 11.2114 5.6185 11.5157 5.61422 11.8199L4.30707 12.5914C4.29422 12.3942 4.28564 12.1971 4.28564 11.9999ZM4.40564 13.3499C4.4485 13.5942 4.49993 13.8342 4.5685 14.0742L5.75136 13.3757C5.69993 13.1357 5.66564 12.8871 5.63993 12.6385L4.40564 13.3499ZM5.09136 15.4285C4.98089 15.212 4.88078 14.9903 4.79136 14.7642L5.9485 14.0957C6.02993 14.3228 6.11993 14.5457 6.2185 14.7642L5.08707 15.4285H5.09136ZM5.43422 16.0499C5.56279 16.2642 5.7085 16.4699 5.8585 16.6671L6.98564 16.0071C6.83277 15.8124 6.69111 15.6093 6.56136 15.3985L5.43422 16.0499ZM6.86564 17.7557C6.67279 17.5842 6.49279 17.4085 6.32136 17.2199L7.46564 16.5599C7.64564 16.7399 7.83422 16.9114 8.03136 17.0742L6.86564 17.7557ZM7.45707 18.2357C7.6585 18.3814 7.86422 18.5185 8.07422 18.6428L9.34707 17.8971C9.11564 17.7857 8.89279 17.6657 8.6785 17.5328L7.45707 18.2357ZM9.87422 19.4185C9.51422 19.3157 9.16707 19.1871 8.83279 19.0328L10.2256 18.2314C10.6242 18.3557 11.0399 18.4371 11.4685 18.4799L9.87422 19.4185ZM10.9371 19.6414C12.6376 19.8784 14.3686 19.5413 15.856 18.6835C17.3433 17.8257 18.502 16.4963 19.1485 14.9057L17.2971 15.9771L17.0056 16.3028C16.8642 16.4614 16.7142 16.6157 16.5599 16.7614C16.2085 17.1042 15.7885 17.4771 15.3985 17.7042C14.4856 18.2485 12.8228 18.5571 12.8228 18.5571L10.9371 19.6414ZM18.0942 14.5842L19.5171 13.7485C19.5899 13.4357 19.6456 13.1099 19.6756 12.7842L18.4542 13.4871C18.3685 13.8685 18.2442 14.2371 18.0899 14.5885L18.0942 14.5842ZM19.7142 11.8114L18.6085 12.4585C18.6237 12.2403 18.6279 12.0214 18.6214 11.8028L19.6756 11.1942C19.6971 11.3999 19.7099 11.6014 19.7142 11.8114ZM18.5314 10.9071L19.5299 10.3157C19.4871 10.1099 19.4314 9.90422 19.3671 9.7028L18.3899 10.2685C18.4456 10.4742 18.4928 10.6885 18.5314 10.9071ZM19.0714 8.90994L18.1114 9.47565C18.0256 9.27851 17.9399 9.08994 17.8371 8.90137L18.7971 8.34422C18.8956 8.5328 18.9856 8.71708 19.0714 8.90994ZM17.3956 8.2028L18.3599 7.6328C18.2485 7.46994 18.1285 7.30708 17.9999 7.1528L17.0142 7.7228C17.1471 7.87708 17.2714 8.03565 17.3956 8.2028ZM17.4299 6.51851L16.4099 7.11851C16.2514 6.97708 16.0842 6.84422 15.9085 6.71994L16.9756 6.10708C17.1299 6.23565 17.2842 6.37708 17.4299 6.51851ZM15.1199 6.23565L16.2556 5.56708C16.0829 5.45285 15.9056 5.34562 15.7242 5.24565L14.4856 5.94851C14.6999 6.03422 14.9142 6.12851 15.1199 6.23565ZM14.8199 4.82137L13.4142 5.63565C13.0371 5.55422 12.6471 5.51137 12.2485 5.50708L13.9799 4.54708C14.2671 4.62422 14.5499 4.71422 14.8199 4.82137ZM4.37136 10.8471L5.94422 9.9428C6.09298 9.49703 6.28985 9.06879 6.53136 8.66565L4.6285 9.71565C4.51435 10.0858 4.42839 10.464 4.37136 10.8471ZM12.7156 4.31994C11.1475 4.17266 9.57192 4.5089 8.20053 5.28347C6.82914 6.05803 5.7277 7.23381 5.04422 8.6528L7.3585 7.34994C7.3585 7.34994 8.15993 6.56565 8.78136 6.21851C9.3985 5.87137 10.4785 5.58422 10.4785 5.58422L12.7156 4.31994Z" fill="#B3BDC7"/>
</g>
<defs>
<clipPath id="clip0_31_16980">
<rect width="24" height="24" fill="white"/>
</clipPath>
</defs>
</svg>

<svg xmlns="http://www.w3.org/2000/svg" width="24" height="24" fill="none" viewBox="0 0 24 24"><g clip-path="url(#a)"><path fill="#F0F3FA" d="M0 0h24v24H0z"/><path fill="#F7931A" d="M6 12a6 6 0 1 1 12 0 6 6 0 0 1-12 0"/><path fill="#fff" d="M14.691 11.293c.112-.75-.458-1.157-1.243-1.427l.253-1.016-.621-.154-.249.99-.492-.116.248-.999-.621-.154-.257 1.02-.39-.094v-.005l-.858-.214-.167.664s.459.108.454.112c.25.064.292.227.288.356l-.287 1.165.064.022-.069-.017-.407 1.628c-.03.073-.107.189-.283.142.009.012-.45-.108-.45-.108l-.308.708.81.201.441.116-.257 1.028.617.155.253-1.02.497.128-.257 1.016.626.154.257-1.028c1.054.201 1.851.124 2.186-.836.27-.772-.013-1.213-.57-1.509.407-.085.71-.355.788-.908zm-1.414 1.993c-.193.771-1.491.351-1.911.252l.343-1.371c.415.111 1.765.317 1.564 1.114v.005zm.189-1.998c-.172.699-1.26.343-1.607.258l.308-1.239c.351.086 1.479.253 1.299.981"/><path fill="#B3BDC7" d="m4.286 12 .004-.287 1.41-.793a5.7 5.7 0 0 0-.086.9l-1.307.771A9 9 0 0 1 4.286 12m.12 1.35c.043.244.094.484.163.724l1.182-.698a7 7 0 0 1-.111-.737zm.685 2.079a8 8 0 0 1-.3-.665l1.157-.668q.123.34.27.668l-1.13.665zm.343.62c.129.215.274.42.425.618l1.127-.66a7 7 0 0 1-.425-.609zm1.432 1.707a7 7 0 0 1-.545-.536l1.145-.66q.27.27.565.514zm.591.48q.303.218.617.407l1.273-.746a7 7 0 0 1-.668-.364zm2.417 1.183a7 7 0 0 1-1.041-.386l1.393-.802q.598.186 1.242.249zm1.063.222a7.714 7.714 0 0 0 8.212-4.735l-1.852 1.071-.291.326a8 8 0 0 1-.446.458c-.351.343-.771.716-1.161.943-.913.544-2.576.853-2.576.853zm7.157-5.057 1.423-.835a7 7 0 0 0 .159-.965l-1.222.703c-.085.381-.21.75-.364 1.101zm1.62-2.773-1.105.648a7 7 0 0 0 .012-.656l1.055-.609c.021.206.034.407.038.617m-1.183-.904.999-.591a6 6 0 0 0-.163-.613l-.977.566q.084.31.141.638m.54-1.997-.96.566a7 7 0 0 0-.274-.575l.96-.557c.099.189.189.373.274.566m-1.675-.707.964-.57a6 6 0 0 0-.36-.48l-.986.57c.133.154.257.313.382.48m.034-1.684-1.02.6a6 6 0 0 0-.502-.4l1.068-.612c.154.129.308.27.454.412m-2.31-.283 1.136-.669a8 8 0 0 0-.532-.321l-1.238.703c.214.085.428.18.634.287m-.3-1.415-1.406.815a6 6 0 0 0-1.165-.129l1.73-.96q.434.115.84.274M4.37 10.847l1.573-.904q.225-.67.587-1.277L4.63 9.716q-.172.556-.258 1.131m8.345-6.527a7.71 7.71 0 0 0-7.672 4.333L7.36 7.35s.8-.784 1.422-1.131c.617-.348 1.697-.635 1.697-.635z"/></g><defs><clipPath id="a"><path fill="#fff" d="M0 0h24v24H0z"/></clipPath></defs></svg>
